images/icons/basket-white.svg

<svg width="35" height="34" viewBox="0 0 35 34" fill="none" xmlns="http://www.w3.org/2000/svg">
<path d="M29.4849 19.5702L30.9629 11.3793C31.0232 11.0448 31.0099 10.701 30.9238 10.3722C30.8378 10.0434 30.6812 9.73773 30.4649 9.47669C30.2487 9.21564 29.9783 9.00565 29.6727 8.86155C29.367 8.71745 29.0337 8.64277 28.6963 8.64277H9.76076L9.26721 5.90621C9.17092 5.37117 8.89122 4.8872 8.47692 4.5388C8.06262 4.1904 7.54006 3.99971 7.00045 4H5.38217C5.01559 4 4.66403 4.14674 4.40483 4.40795C4.14562 4.66916 4 5.02343 4 5.39283C4 5.76223 4.14562 6.11651 4.40483 6.37771C4.66403 6.63892 5.01559 6.78566 5.38217 6.78566H6.6161L9.62277 23.4506C9.63659 23.5266 9.65456 23.6007 9.67518 23.6738C9.22223 24.1355 8.89737 24.7088 8.73301 25.3366C8.56865 25.9643 8.57055 26.6246 8.73851 27.2514C8.90646 27.8781 9.23461 28.4496 9.6902 28.9087C10.1458 29.3677 10.7129 29.6984 11.3349 29.8676C11.9569 30.0368 12.6121 30.0386 13.235 29.8729C13.8579 29.7073 14.4269 29.3798 14.885 28.9234C15.3432 28.4669 15.6745 27.8973 15.8459 27.2715C16.0174 26.6456 16.023 25.9854 15.8621 25.3568H22.5456C22.3534 26.1068 22.3987 26.8987 22.6751 27.6215C22.9516 28.3443 23.4455 28.9619 24.0875 29.3879C24.7296 29.8139 25.4877 30.027 26.2559 29.9973C27.0241 29.9675 27.7638 29.6965 28.3716 29.2222C28.9793 28.7478 29.4247 28.0939 29.6454 27.3518C29.866 26.6097 29.851 25.8167 29.6022 25.0837C29.3535 24.3507 28.8836 23.7144 28.2582 23.2639C27.6329 22.8134 26.8834 22.5711 26.1147 22.5711H12.2738L11.9386 20.714H28.125C28.4487 20.714 28.7622 20.5995 29.0107 20.3905C29.2592 20.1815 29.4271 19.8912 29.485 19.5702H29.4849ZM13.2144 26.2853C13.2144 26.469 13.1604 26.6485 13.0592 26.8012C12.9579 26.9539 12.814 27.0729 12.6456 27.1432C12.4773 27.2135 12.292 27.2319 12.1132 27.196C11.9345 27.1602 11.7703 27.0718 11.6414 26.9419C11.5126 26.812 11.4248 26.6466 11.3893 26.4665C11.3537 26.2863 11.372 26.0996 11.4417 25.93C11.5114 25.7603 11.6295 25.6153 11.7811 25.5132C11.9326 25.4112 12.1108 25.3568 12.293 25.3568C12.5373 25.3571 12.7715 25.455 12.9442 25.6291C13.117 25.8031 13.2141 26.0391 13.2144 26.2853ZM26.1147 27.2139C25.9324 27.2139 25.7543 27.1594 25.6027 27.0574C25.4512 26.9553 25.3331 26.8103 25.2634 26.6407C25.1936 26.471 25.1754 26.2843 25.2109 26.1042C25.2465 25.924 25.3342 25.7586 25.4631 25.6287C25.592 25.4989 25.7562 25.4104 25.9349 25.3746C26.1137 25.3388 26.2989 25.3572 26.4673 25.4274C26.6357 25.4977 26.7796 25.6167 26.8808 25.7694C26.9821 25.9221 27.0361 26.1017 27.0361 26.2853C27.0358 26.5315 26.9386 26.7675 26.7659 26.9416C26.5932 27.1156 26.359 27.2136 26.1147 27.2139ZM11.4361 17.9283L10.2635 11.4284H28.1442L26.9714 17.9283H11.4361Z" fill="#FDFBF8"/>
</svg>

<svg width="35" height="34" fill="none" xmlns="http://www.w3.org/2000/svg"><path d="m29.485 19.57 1.478-8.19a2.339 2.339 0 0 0-.498-1.903 2.306 2.306 0 0 0-1.769-.834H9.761l-.494-2.737a2.324 2.324 0 0 0-.79-1.367A2.292 2.292 0 0 0 7 4H5.382c-.366 0-.718.147-.977.408a1.398 1.398 0 0 0 0 1.97c.259.26.61.408.977.408h1.234L9.623 23.45c.014.076.032.15.052.223a3.74 3.74 0 0 0 .015 5.235 3.656 3.656 0 0 0 5.195.015 3.739 3.739 0 0 0 .977-3.567h6.684a3.742 3.742 0 0 0 .13 2.265 3.71 3.71 0 0 0 1.412 1.766 3.665 3.665 0 0 0 4.284-.166 3.716 3.716 0 0 0 1.273-1.87 3.742 3.742 0 0 0-.043-2.268 3.712 3.712 0 0 0-1.344-1.82 3.667 3.667 0 0 0-2.143-.693H12.274l-.335-1.857h16.186c.324 0 .637-.114.886-.323.248-.21.416-.5.474-.82Zm-16.27 6.715a.934.934 0 0 1-.57.858.914.914 0 0 1-1.004-.201.93.93 0 0 1 .652-1.585c.244 0 .479.098.651.272.173.174.27.41.27.656Zm12.9.929a.917.917 0 0 1-.852-.573.935.935 0 0 1 .2-1.012.92.92 0 0 1 1.573.656.934.934 0 0 1-.27.657.92.92 0 0 1-.651.272Zm-14.679-9.286-1.172-6.5h17.88l-1.173 6.5H11.436Z" fill="#FDFBF8"/></svg>
